X:1
T:Title
%%score { ( 1 3 ) | 2 }
L:1/8
Q:1/4=100
M:4/4
K:A
V:1 treble nm="Grand Piano"
V:3 treble 
V:2 bass 
V:1
 E2 CE A2 E2 | cBAG [CEA]4 | FFFG [EA]2 [Ec]2 | [^Dc][DB][DA][DF] z2 =D2 | %4
w: W.~J.~Kirkpatrick * * * *||||
 [CE][CE][A,C][CE] [CA]2 [CE]2 | [EA][EA]BB c4 | [Fd][Fc][FB][F^A] [FB]2 F2 | AGFG [CEA]4 | %8
w: ||||
 c2 e2 e2 A2 | GABc B2 E2 | [EA]2 [EA]2 B2 B2 | cBc[A^d] [Ge]4 | c2 e2 e2 A2 | %13
w: |||||
 [Fd][Fc][FB][F^A] [FB]2 F2 | GGFE [EA][Ec][=Ge]d | c2 B2 [CEA]4 |] %16
w: |||
V:2
 E,2 C,E, A,2 [A,C]2 | [E,A,E][E,DE][E,CE][E,B,E] A,,4 | %2
 [D,A,D][D,A,D][D,A,D][D,B,D] [C,A,]2 [A,,A,]2 | [B,,F,][B,,F,][B,,B,][B,,A,] [E,G,]4 | %4
 [A,,A,][A,,A,][A,,E,][A,,E,] [A,,E,]2 [A,,A,]2 | [C,A,][C,A,][E,G,E][E,G,E] [A,E]4 | %6
 [D,A,][D,A,][D,F,][D,F,] [D,B,]2 [D,B,]2 | [E,CE][E,B,E][E,A,E][E,B,E] A,,4 | %8
 [A,E]2 [A,CE]2 [A,CE]2 [A,CE]2 | [E,B,E][E,CE][E,G,E][E,A,E] [E,G,E]2 [D,B,]2 | %10
 [C,A,]2 [C,A,]2 [E,G,E]2 [E,G,E]2 | [A,E][G,B,E][A,E][F,B,] [E,B,]4 | %12
 [A,E]2 [A,CE]2 [A,CE]2 [A,CE]2 | [D,A,][D,A,][D,F,][D,F,] [D,B,]2 [D,B,D]2 | %14
 [E,B,D][E,B,D][E,A,D][E,G,D] [C,A,][C,A,][C,G,][F,A,F] | [E,A,E]2 [E,DE]2 [A,,A,]4 |] %16
V:3
 x8 | x8 | x8 | z4 E4 | x8 | x8 | x8 | x8 | x8 | x8 | x8 | x8 | x8 | x8 | x8 | x8 |] %16

